www/assets/icons/phone_locked.svg

<svg width="24" height="24" viewBox="0 0 24 24" xmlns="http://www.w3.org/2000/svg" fill='currentColor'><path d="M20.0007 5.49951V4.49951C20.0007 3.39951 19.1007 2.49951 18.0007 2.49951C16.9007 2.49951 16.0007 3.39951 16.0007 4.49951V5.49951H15.0007V10.4995H21.0007V5.49951H20.0007ZM19.0007 5.49951H17.0007V4.49951C17.0007 3.94951 17.4507 3.49951 18.0007 3.49951C18.5507 3.49951 19.0007 3.94951 19.0007 4.49951V5.49951Z"/><path d="M15.6307 14.8995L13.1107 17.3995C10.6107 15.9695 8.54069 13.8995 7.11069 11.3995L9.61069 8.87951C9.84069 8.63951 9.94069 8.30951 9.88069 7.97951L9.13069 4.29951C9.04069 3.83951 8.63069 3.49951 8.15069 3.49951H4.00069C3.44069 3.49951 2.97069 3.96951 3.00069 4.52951C3.17069 7.41951 4.05069 10.1295 5.43069 12.4995C7.01069 15.2295 9.28069 17.4895 12.0007 19.0695C14.3707 20.4395 17.0807 21.3295 19.9707 21.4995C20.5307 21.5295 21.0007 21.0595 21.0007 20.4995V16.3495C21.0007 15.8695 20.6607 15.4595 20.2007 15.3695L16.5307 14.6395C16.2007 14.5695 15.8607 14.6695 15.6307 14.8995Z"/></svg>

<svg xmlns="http://www.w3.org/2000/svg" width="24" height="24" viewBox="0 0 24 24" fill='currentColor'><path d="M20 5.5v-1c0-1.1-.9-2-2-2s-2 .9-2 2v1h-1v5h6v-5zm-1 0h-2v-1c0-.55.45-1 1-1s1 .45 1 1z"/><path d="m15.63 14.9-2.52 2.5c-2.5-1.43-4.57-3.5-6-6l2.5-2.52c.23-.24.33-.57.27-.9L9.13 4.3c-.09-.46-.5-.8-.98-.8H4c-.56 0-1.03.47-1 1.03.17 2.89 1.05 5.6 2.43 7.97 1.58 2.73 3.85 4.99 6.57 6.57 2.37 1.37 5.08 2.26 7.97 2.43.56.03 1.03-.44 1.03-1v-4.15c0-.48-.34-.89-.8-.98l-3.67-.73a.99.99 0 0 0-.9.26"/></svg>
